static/img/logo.svg

<svg fill="none" height="28" viewBox="0 0 161 28" width="161" xmlns="http://www.w3.org/2000/svg" xmlns:xlink="http://www.w3.org/1999/xlink"><clipPath id="a"><path d="m0 .454102h161v27.5462h-161z"/></clipPath><g clip-path="url(#a)"><g fill="#6f43e7"><path d="m5.71009 27.3796c-.5711-.0729-1.3366.243-1.67683-.158-.32808-.3888-.08506-1.13-.09721-1.7133 0-4.35 0-8.7.01215-13.0622 0-1.0936-.18226-2.1386-.83841-3.04992-.63185-.87486-1.48242-1.47026-2.624607-1.51886-.4009814-.01216-.4981889-.15797-.48603797-.53465.02430187-.6683.02430187-1.3366 0-2.0049-.01215093-.34023.07290567-.51034.43743397-.54679 1.932001-.19442 3.864001-.41314 5.783851-.63185 2.75826-.30378 5.50437-.6197 8.26267-.92347 2.7096-.30378 5.4193-.5954 8.1411-.89917 2.6732-.29163 5.3464-.58325 8.0196-.88702 2.9527-.32808 5.9054-.668305 8.8581-.99638.0729-.012151.1458.036453.2187.060755.243.218717.2916.510335.3038.826265 0 .6683.0121 1.3366 0 2.0049-.0243.88702-.1094.99638-.9478 1.22725-.7291.19441-1.4338.43743-2.0535.87487-1.7498 1.21509-2.6854 2.87977-2.6975 5.01837-.0243 5.4436 0 10.8751-.0122 16.3187 0 .4131.0972.8627-.2916 1.1908-1.2151-.0122-2.4302-.0365-3.6453-.0243-.4982.0121-.5954-.1823-.5954-.6319.0122-5.5651 0-11.1302.0122-16.6954 0-1.56744-.4982-2.87974-1.6769-3.93688-.2308-.19441-.4496-.40098-.7533-.48603-.9235-.19442-1.847-.40099-2.7947-.29163-2.2844.25517-4.265 2.17502-4.5567 4.44724-.0972.7169-.1458 1.446-.1458 2.175.0122 4.6903.0122 9.3806 0 14.0708 0 .3888.1094.8263-.3159 1.1058-.0729 0-.1336 0-.2066 0-.7776-.1216-1.5553.0364-2.3329-.0851-1.045-.0365-1.045-.0365-1.045-1.0693 0-4.994-.0122-9.9881 0-14.9699 0-1.5797-.4861-2.92842-1.7376-3.9491-.1094-.08506-.243-.14581-.3645-.20657-1.2637-.29162-2.5396-.54679-3.7668.10936-1.72545.89917-2.58817 2.39374-2.61247 4.32571-.03646 4.6538-.01215 9.2955-.01215 13.9493 0 .3038 0 .6076-.01215.9113-.01216.2552-.07291.4739-.29163.644-.48604.1094-.97207.0608-1.45811.0122z"/><path d="m79.5888 14.7074c.0972 2.4545-.1458 4.909.158 7.3878-1.0693 0-2.2115 0-3.3415 0 .3037-1.9441.1336-3.9126.1336-5.881 0-1.9685.158-3.9491-.1336-5.9905h4.1191c.0973 0 .2066 0 .2066.1458 0 .7048.4374 1.2516.7169 1.847.8627 1.8469 1.7376 3.6939 2.6125 5.5287.085.1701.1093.3888.3524.5225.3159-.644.6196-1.2637.9234-1.8956.8384-1.7497 1.7376-3.463 2.4667-5.2613.1093-.2674.085-.7291.2551-.8263.2917-.1458.7048-.0729 1.0693-.0729h3.1593c.0364 0 .0729.0243.1336.0364-.2187.4253-.2308.8992-.2308 1.3609v9.174c0 .4374.0121.887.2308 1.3245-1.1665 0-2.2965 0-3.4265 0 .1822-.8385.2794-6.2456.1215-7.3878-.2066.0243-.2066.2187-.2674.3524-.9842 1.8955-1.9563 3.8032-2.8433 5.7474-.0729.1701-.2065.3402-.2065.4981.0243.9235-.6076.7777-1.203.8263-.9478.0608-1.5067-.0364-1.9077-1.1786-.7776-2.175-1.9198-4.2164-2.9041-6.3064-.0729.0365-.1336.0365-.1944.0486z"/><path d="m153.138 18.3527c1.179-2.5031 2.503-4.8483 3.427-7.3635.255-.6926.547-.7777 1.142-.7655 1.13.0364 2.26.0121 3.281.0121-.073 3.9613-.073 7.8982.012 11.8837-.984 0-2.102 0-3.22 0 .292-2.4424.049-4.909.158-7.3757-.255 0-.255.158-.304.2552-.935 1.8834-1.871 3.7547-2.794 5.6381-.098.1944-.207.4009-.268.6075-.085.2795-.073.7534-.231.8263-.328.1458-.741.0729-1.13.085-.425 0-.899.1094-1.263-.0364-.365-.1458-.231-.6926-.401-1.045-1.021-2.1264-2.017-4.265-3.099-6.3793-.024 2.4788-.206 4.9333.037 7.4364-1.058 0-2.2 0-3.22 0 .085-3.9369.097-7.8859-.013-11.8836h3.998c.17 0 .231.0364.243.2309.024.2794.109.5589.231.8141 1.069 2.2844 2.163 4.5566 3.244 6.841.025.0243.073.0729.17.2187z"/><path d="m95.2515 10.2358h3.6574c2.3211 0 4.6541.0121 6.9751-.0122.473 0 .656.0729.68.6076.024.7412.207 1.4702.328 2.2722-1.154-.3402-2.272-.5589-3.414-.6318-1.531-.0973-3.075-.0365-4.6056-.0365-.328 0-.4738.158-.4738.486.0121.5468.0121 1.0936 0 1.6404-.0122.401.1701.5468.5467.5347 1.9317-.0608 3.8767.1944 5.8207-.3281-.11.7655-.219 1.4946-.304 2.2358-.037.3523-.292.2794-.498.2794-1.604 0-3.196.0243-4.7999-.0121-.6319-.0122-.8263.2065-.7777.8019.0365.4861.0122.9721.0122 1.4582 0 .2551.0972.4252.3888.4252 2.3206-.0486 4.6536.1215 6.9746-.0972.535-.0486.996-.3037 1.531-.5954-.134.96-.231 1.8591-.377 2.734-.048.2795-.34.1458-.51.1458-2.612.0122-5.225 0-7.8252 0-1.1543 0-2.2965 0-3.3172 0 .0729-3.9855.0729-7.9346-.0121-11.9079z"/><path d="m130.112 10.248h3.415c-.268 1.4217-.097 2.8677-.134 4.3015-.024.9721-.012 1.9441.012 2.9162.049 1.7497.814 2.5396 2.528 2.6975.546.0486 1.093-.0121 1.628-.1458.911-.2187 1.519-.9842 1.543-2.1507.049-2.3087.024-4.6052.012-6.9139 0-.2309-.097-.4617-.158-.7048h3.439c-.389 1.0572-.195 2.1508-.231 3.22-.049 1.5918.146 3.1957-.097 4.7875-.34 2.2115-1.677 3.5238-3.864 3.9491-1.47.2916-2.941.2673-4.387-.1094-2.09-.5468-3.402-2.2601-3.451-4.508-.036-1.9441-.012-3.8883-.012-5.8203.012-.5225-.024-1.0207-.243-1.5189z"/></g><path d="m34.0225 27.9636c0-5.8203.0121-11.6406.0121-17.473 0-3.06207 2.0171-5.57731 5.0184-6.22131.486-.10936.6683-.27947.6561-.78981-.0365-.98423.0122-1.98061.0243-2.964832.5711.060755 1.0814.315925 1.6282.449585.2674.060757.3403.255167.3281.498187 0 .94778-.0121 1.9077 0 2.85547.0122.46174-.2916.49819-.6197.5711-2.2358.55894-3.8275 1.85909-4.6417 4.04626-.2551.69261-.3523 1.40955-.3523 2.13855.0121 5.3829 0 10.7658 0 16.1486 0 .7777 0 .7777-.7898.7412-.4132.0122-.8385.0122-1.2637 0z" fill="#c5b7dd"/><path d="m19.5508 27.6962c.0972-.2795.0729-.5589.0729-.8384 0-5.1034.0121-10.2068 0-15.3102 0-2.01707.7047-3.6696 2.2965-4.92114 1.6161-1.2637 3.8519-1.43382 5.4558-.43744-2.9284-.10936-5.711 2.21147-5.7231 5.91748-.0122 4.9333 0 9.8545 0 14.7877 0 .8384 0 .8384-.8263.8263-.4253-.0122-.8505-.0122-1.2758-.0243z" fill="#c5b7dd"/><path d="m7.16896 27.3558c-.01216-2.2479-.02431-4.4837-.02431-6.7316 0-2.9284-.0243-5.8689.01216-8.7973.0243-2.33298 1.59177-4.41079 3.71819-4.90898 1.0571-.25517 2.09-.17011 3.0134.49819-2.7339.08505-4.32571 2.30868-4.62948 4.48369-.08506.644-.10936 1.288-.10936 1.932.01215 4.2771 0 8.5664 0 12.8436 0 .7898 0 .7898-.76551.7655-.40098 0-.80196-.0486-1.21509-.0851z" fill="#c5b7dd"/><path d="m127.463 22.1312c-1.203 0-2.321 0-3.305 0 .049-3.9612.049-7.8981 0-11.8714h3.317c-.267.5103-.255 1.0571-.255 1.5917v8.7487c-.012.5104 0 1.0085.243 1.531z" fill="#6f43e7"/><path d="m17.0112 27.624c.7777-.0365 1.5553-.0486 2.333.085-.7777.0486-1.5675.0729-2.333-.085z" fill="#c5b7dd"/><path d="m5.71094 27.3807c.48603-.0121.97207-.0121 1.45811-.0243-.47389.2552-.97208.1094-1.45811.0243z" fill="#c5b7dd"/><g fill="#6f43e7"><path d="m122.141 22.107c-1.458-1.5432-2.248-3.6575-4.325-4.6539.182-.085.291-.1336.4-.1822 1.483-.6319 2.261-1.9199 2.127-3.5238-.158-1.8955-.911-2.9284-2.661-3.2807-2.795-.55899-5.638-.0973-8.311-.2674.17 4.0098.121 7.9467.024 11.908h3.305c-.352-1.2394-.134-2.4788-.182-3.7061-.012-.3524.255-.401.546-.4131 2.127-.1337 3.634.8141 4.594 2.8798.194.4009.328.8019.121 1.2394zm-5.905-6.3064c-1.13.3159-2.284.1458-3.439.1337-.279 0-.291-.2309-.291-.4375 0-.8505 0-1.7011 0-2.5395 0-.3038.121-.4496.425-.4496h1.458v.0243c.51 0 1.008-.0364 1.507.0122.862.0729 1.324.5589 1.421 1.3852.098.887-.303 1.6525-1.081 1.8712z"/><path d="m73.7928 14.1721c-.5103-2.2358-1.932-3.5238-4.1556-3.9369-1.6039-.30379-3.22-.30379-4.8239.0364-2.1021.4496-3.4995 1.7012-4.022 3.8154-.3402 1.3731-.3402 2.7704 0 4.1435.5225 2.1143 1.8105 3.463 3.9855 3.9126.8384.1701 1.6768.2552 2.6003.2309.6076.0364 1.2637-.0365 1.932-.1215 2.2236-.2674 3.8397-1.6161 4.4108-3.7668.3888-1.4217.4131-2.8676.0729-4.3136zm-3.062 3.9733c-.2552.8749-.802 1.4946-1.6769 1.7619-1.215.3767-2.4301.3767-3.6209-.0729-.7412-.2794-1.2637-.8019-1.5068-1.5553-.4374-1.3366-.4617-2.6975-.0486-4.0463.2674-.8991.8628-1.4945 1.7498-1.774 1.0085-.3159 2.0413-.3281 3.0499-.0972 1.4338.3281 2.1385 1.288 2.2843 2.9648.0243.2795 0 .5711 0 .8506.0365.6683-.0486 1.3244-.2308 1.9684z"/><path d="m58.689 13.4924c-.1945-1.4945-1.1058-2.5881-2.5517-2.9891-.644-.1823-1.3002-.2673-1.9806-.2673-2.0049 0-4.0098 0-6.0147 0-.1701 0-.3524-.0608-.4496 0 .3402 2.017.1458 3.9976.1579 5.9661 0 1.9685.1702 3.9491-.1336 5.9175h3.4265c-.3888-1.0936-.1579-2.1507-.2308-3.1957-.0365-.4496.0972-.5832.5589-.5832 1.3366 0 2.6732.085 3.9977-.0972 1.6646-.2309 2.8919-1.3245 3.1835-2.9527.1094-.5954.1215-1.1908.0365-1.7984zm-3.9855 2.4302c-1.1179.3646-2.2723.2673-3.4266.243-.3159-.0121-.3645-.2673-.3645-.5346 0-.4496 0-.887 0-1.3366s0-.887 0-1.3366c0-.243.0607-.4496.3645-.4496 1.1057-.0243 2.2236-.1215 3.3172.158.7412.1944 1.0814.6804 1.13 1.5188.0486.8749-.3037 1.5068-1.0206 1.7376z"/></g></g></svg>

<svg width="161" height="28" viewBox="0 0 161 28" fill="none" xmlns="http://www.w3.org/2000/svg">
<g clip-path="url(#clip0)">
<path d="M5.71009 27.3796C5.13899 27.3067 4.37349 27.6226 4.03326 27.2216C3.70518 26.8328 3.9482 26.0916 3.93605 25.5083C3.93605 21.1583 3.93605 16.8083 3.9482 12.4461C3.9482 11.3525 3.76594 10.3075 3.10979 9.39618C2.47794 8.52132 1.62737 7.92592 0.485183 7.87732C0.0842016 7.86516 -0.0130059 7.71935 -0.000854965 7.34267C0.0234469 6.67437 0.0234469 6.00607 -0.000854965 5.33777C-0.0130059 4.99754 0.0720507 4.82743 0.436579 4.79098C2.36858 4.59656 4.30058 4.37784 6.22043 4.15913C8.97869 3.85535 11.7248 3.53943 14.4831 3.23566C17.1927 2.93188 19.9024 2.64026 22.6242 2.33649C25.2974 2.04486 27.9706 1.75324 30.6438 1.44947C33.5965 1.12139 36.5492 0.781165 39.5019 0.45309C39.5748 0.440939 39.6477 0.489543 39.7206 0.513845C39.9636 0.732562 40.0122 1.02418 40.0244 1.34011C40.0244 2.00841 40.0365 2.67671 40.0244 3.34501C40.0001 4.23203 39.915 4.34139 39.0766 4.57226C38.3475 4.76667 37.6428 5.00969 37.0231 5.44713C35.2733 6.66222 34.3377 8.3269 34.3256 10.4655C34.3013 15.9091 34.3256 21.3406 34.3134 26.7842C34.3134 27.1973 34.4106 27.6469 34.0218 27.975C32.8067 27.9628 31.5916 27.9385 30.3765 27.9507C29.8783 27.9628 29.7811 27.7684 29.7811 27.3188C29.7933 21.7537 29.7811 16.1886 29.7933 10.6234C29.7933 9.05596 29.2951 7.74366 28.1164 6.68652C27.8856 6.49211 27.6668 6.28554 27.3631 6.20049C26.4396 6.00607 25.5161 5.7995 24.5684 5.90886C22.284 6.16403 20.3034 8.08388 20.0117 10.3561C19.9145 11.073 19.8659 11.8021 19.8659 12.5311C19.8781 17.2214 19.8781 21.9117 19.8659 26.6019C19.8659 26.9907 19.9753 27.4282 19.55 27.7077C19.4771 27.7077 19.4164 27.7077 19.3434 27.7077C18.5658 27.5861 17.7881 27.7441 17.0105 27.6226C15.9655 27.5861 15.9655 27.5861 15.9655 26.5533C15.9655 21.5593 15.9533 16.5652 15.9655 11.5834C15.9655 10.0037 15.4794 8.65498 14.2279 7.6343C14.1185 7.54924 13.9849 7.48849 13.8634 7.42773C12.5997 7.13611 11.3238 6.88094 10.0966 7.53709C8.37115 8.43626 7.50843 9.93083 7.48413 11.8628C7.44767 16.5166 7.47198 21.1583 7.47198 25.8121C7.47198 26.1159 7.47198 26.4197 7.45983 26.7234C7.44767 26.9786 7.38692 27.1973 7.1682 27.3674C6.68216 27.4768 6.19613 27.4282 5.71009 27.3796Z" fill="#6f43e7"/>
<path d="M79.5888 14.7074C79.686 17.1619 79.443 19.6164 79.7468 22.0952C78.6775 22.0952 77.5353 22.0952 76.4053 22.0952C76.709 20.1511 76.5389 18.1826 76.5389 16.2142C76.5389 14.2457 76.6969 12.2651 76.4053 10.2237C77.7176 10.2237 79.1271 10.2237 80.5244 10.2237C80.6217 10.2237 80.731 10.2237 80.731 10.3695C80.731 11.0743 81.1684 11.6211 81.4479 12.2165C82.3106 14.0634 83.1855 15.9104 84.0604 17.7452C84.1454 17.9153 84.1697 18.134 84.4128 18.2677C84.7287 17.6237 85.0324 17.004 85.3362 16.3721C86.1746 14.6224 87.0738 12.9091 87.8029 11.1108C87.9122 10.8434 87.8879 10.3817 88.058 10.2845C88.3497 10.1387 88.7628 10.2116 89.1273 10.2116C90.1844 10.2116 91.2294 10.2116 92.2866 10.2116C92.323 10.2116 92.3595 10.2359 92.4202 10.248C92.2015 10.6733 92.1894 11.1472 92.1894 11.6089C92.1894 14.671 92.1894 17.7209 92.1894 20.7829C92.1894 21.2203 92.2015 21.6699 92.4202 22.1074C91.2537 22.1074 90.1237 22.1074 88.9937 22.1074C89.1759 21.2689 89.2731 15.8618 89.1152 14.7196C88.9086 14.7439 88.9086 14.9383 88.8478 15.072C87.8636 16.9675 86.8915 18.8752 86.0045 20.8194C85.9316 20.9895 85.798 21.1596 85.798 21.3175C85.8223 22.241 85.1904 22.0952 84.595 22.1438C83.6472 22.2046 83.0883 22.1074 82.6873 20.9652C81.9097 18.7902 80.7675 16.7488 79.7832 14.6588C79.7103 14.6953 79.6496 14.6953 79.5888 14.7074Z" fill="#6f43e7"/>
<path d="M153.138 18.3527C154.317 15.8496 155.641 13.5044 156.565 10.9892C156.82 10.2966 157.112 10.2115 157.707 10.2237C158.837 10.2601 159.967 10.2358 160.988 10.2358C160.915 14.1971 160.915 18.134 161 22.1195C160.016 22.1195 158.898 22.1195 157.78 22.1195C158.072 19.6771 157.829 17.2105 157.938 14.7438C157.683 14.7438 157.683 14.9018 157.634 14.999C156.699 16.8824 155.763 18.7537 154.84 20.6371C154.742 20.8315 154.633 21.038 154.572 21.2446C154.487 21.5241 154.499 21.998 154.341 22.0709C154.013 22.2167 153.6 22.1438 153.211 22.1559C152.786 22.1559 152.312 22.2653 151.948 22.1195C151.583 21.9737 151.717 21.4269 151.547 21.0745C150.526 18.9481 149.53 16.8095 148.448 14.6952C148.424 17.174 148.242 19.6285 148.485 22.1316C147.427 22.1316 146.285 22.1316 145.265 22.1316C145.35 18.1947 145.362 14.2457 145.252 10.248C146.48 10.248 147.865 10.248 149.25 10.248C149.42 10.248 149.481 10.2844 149.493 10.4789C149.517 10.7583 149.602 11.0378 149.724 11.293C150.793 13.5774 151.887 15.8496 152.968 18.134C152.993 18.1583 153.041 18.2069 153.138 18.3527Z" fill="#6f43e7"/>
<path d="M95.2515 10.2358C96.3694 10.2358 97.633 10.2358 98.9089 10.2358C101.23 10.2358 103.563 10.2479 105.884 10.2236C106.357 10.2236 106.54 10.2965 106.564 10.8312C106.588 11.5724 106.771 12.3014 106.892 13.1034C105.738 12.7632 104.62 12.5445 103.478 12.4716C101.947 12.3743 100.403 12.4351 98.8724 12.4351C98.5444 12.4351 98.3986 12.5931 98.3986 12.9211C98.4107 13.4679 98.4107 14.0147 98.3986 14.5615C98.3864 14.9625 98.5687 15.1083 98.9453 15.0962C100.877 15.0354 102.822 15.2906 104.766 14.7681C104.656 15.5336 104.547 16.2627 104.462 17.0039C104.425 17.3562 104.17 17.2833 103.964 17.2833C102.36 17.2833 100.768 17.3076 99.1641 17.2712C98.5322 17.259 98.3378 17.4777 98.3864 18.0731C98.4229 18.5592 98.3986 19.0452 98.3986 19.5313C98.3986 19.7864 98.4958 19.9565 98.7874 19.9565C101.108 19.9079 103.441 20.078 105.762 19.8593C106.297 19.8107 106.758 19.5556 107.293 19.2639C107.159 20.2239 107.062 21.123 106.916 21.9979C106.868 22.2774 106.576 22.1437 106.406 22.1437C103.794 22.1559 101.181 22.1437 98.5808 22.1437C97.4265 22.1437 96.2843 22.1437 95.2636 22.1437C95.3365 18.1582 95.3365 14.2091 95.2515 10.2358Z" fill="#6f43e7"/>
<path d="M130.112 10.248C131.267 10.248 132.397 10.248 133.527 10.248C133.259 11.6697 133.43 13.1157 133.393 14.5495C133.369 15.5216 133.381 16.4936 133.405 17.4657C133.454 19.2154 134.219 20.0053 135.933 20.1632C136.479 20.2118 137.026 20.1511 137.561 20.0174C138.472 19.7987 139.08 19.0332 139.104 17.8667C139.153 15.558 139.128 13.2615 139.116 10.9528C139.116 10.7219 139.019 10.4911 138.958 10.248C140.088 10.248 141.218 10.248 142.397 10.248C142.008 11.3052 142.202 12.3988 142.166 13.468C142.117 15.0598 142.312 16.6637 142.069 18.2555C141.729 20.467 140.392 21.7793 138.205 22.2046C136.735 22.4962 135.264 22.4719 133.818 22.0952C131.728 21.5484 130.416 19.8351 130.367 17.5872C130.331 15.6431 130.355 13.6989 130.355 11.7669C130.367 11.2444 130.331 10.7462 130.112 10.248Z" fill="#6f43e7"/>
<path d="M34.0225 27.9636C34.0225 22.1433 34.0346 16.323 34.0346 10.4906C34.0346 7.42853 36.0517 4.91329 39.053 4.26929C39.539 4.15993 39.7213 3.98982 39.7091 3.47948C39.6726 2.49525 39.7213 1.49887 39.7334 0.514648C40.3045 0.575403 40.8148 0.830573 41.3616 0.964233C41.629 1.02499 41.7019 1.2194 41.6897 1.46242C41.6897 2.4102 41.6776 3.37012 41.6897 4.31789C41.7019 4.77963 41.3981 4.81608 41.07 4.88899C38.8342 5.44793 37.2425 6.74808 36.4283 8.93525C36.1732 9.62786 36.076 10.3448 36.076 11.0738C36.0881 16.4567 36.076 21.8396 36.076 27.2224C36.076 28.0001 36.076 28.0001 35.2862 27.9636C34.873 27.9758 34.4477 27.9758 34.0225 27.9636Z" fill="#C5B7DD"/>
<path d="M19.5508 27.6962C19.648 27.4167 19.6237 27.1373 19.6237 26.8578C19.6237 21.7544 19.6358 16.651 19.6237 11.5476C19.6237 9.53053 20.3284 7.878 21.9202 6.62646C23.5363 5.36276 25.7721 5.19264 27.376 6.18902C24.4476 6.07966 21.665 8.40049 21.6529 12.1065C21.6407 17.0398 21.6529 21.961 21.6529 26.8942C21.6529 27.7326 21.6529 27.7326 20.8266 27.7205C20.4013 27.7083 19.9761 27.7083 19.5508 27.6962Z" fill="#C5B7DD"/>
<path d="M7.16896 27.3558C7.1568 25.1079 7.14465 22.8721 7.14465 20.6242C7.14465 17.6958 7.12035 14.7553 7.15681 11.8269C7.18111 9.49392 8.74858 7.41611 10.875 6.91792C11.9321 6.66275 12.965 6.74781 13.8884 7.41611C11.1545 7.50116 9.56269 9.72479 9.25892 11.8998C9.17386 12.5438 9.14956 13.1878 9.14956 13.8318C9.16171 18.1089 9.14956 22.3982 9.14956 26.6754C9.14956 27.4652 9.14956 27.4652 8.38405 27.4409C7.98307 27.4409 7.58209 27.3923 7.16896 27.3558Z" fill="#C5B7DD"/>
<path d="M127.463 22.1312C126.26 22.1312 125.142 22.1312 124.158 22.1312C124.207 18.17 124.207 14.2331 124.158 10.2598C125.142 10.2598 126.285 10.2598 127.475 10.2598C127.208 10.7701 127.22 11.3169 127.22 11.8515C127.22 14.7678 127.22 17.684 127.22 20.6002C127.208 21.1106 127.22 21.6087 127.463 22.1312Z" fill="#6f43e7"/>
<path d="M17.0112 27.624C17.7889 27.5875 18.5665 27.5754 19.3442 27.709C18.5665 27.7576 17.7767 27.7819 17.0112 27.624Z" fill="#C5B7DD"/>
<path d="M5.71094 27.3807C6.19697 27.3686 6.68301 27.3686 7.16905 27.3564C6.69516 27.6116 6.19697 27.4658 5.71094 27.3807Z" fill="#C5B7DD"/>
<path d="M122.141 22.107C120.683 20.5638 119.893 18.4495 117.816 17.4531C117.998 17.3681 118.107 17.3195 118.216 17.2709C119.699 16.639 120.477 15.351 120.343 13.7471C120.185 11.8516 119.432 10.8187 117.682 10.4664C114.887 9.90741 112.044 10.3691 109.371 10.199C109.541 14.2088 109.492 18.1457 109.395 22.107C110.416 22.107 111.558 22.107 112.7 22.107C112.348 20.8676 112.566 19.6282 112.518 18.4009C112.506 18.0485 112.773 17.9999 113.064 17.9878C115.191 17.8541 116.698 18.8019 117.658 20.8676C117.852 21.2685 117.986 21.6695 117.779 22.107C119.261 22.107 120.707 22.107 122.141 22.107ZM116.236 15.8006C115.106 16.1165 113.952 15.9464 112.797 15.9343C112.518 15.9343 112.506 15.7034 112.506 15.4968C112.506 14.6463 112.506 13.7957 112.506 12.9573C112.506 12.6535 112.627 12.5077 112.931 12.5077C113.417 12.5077 113.903 12.5077 114.389 12.5077C114.389 12.5199 114.389 12.532 114.389 12.532C114.899 12.532 115.397 12.4956 115.896 12.5442C116.758 12.6171 117.22 13.1031 117.317 13.9294C117.415 14.8164 117.014 15.5819 116.236 15.8006Z" fill="#6f43e7"/>
<path d="M73.7928 14.1721C73.2825 11.9363 71.8608 10.6483 69.6372 10.2352C68.0333 9.93141 66.4172 9.93141 64.8133 10.2716C62.7112 10.7212 61.3138 11.9728 60.7913 14.087C60.4511 15.4601 60.4511 16.8574 60.7913 18.2305C61.3138 20.3448 62.6018 21.6935 64.7768 22.1431C65.6152 22.3132 66.4536 22.3983 67.3771 22.374C67.9847 22.4104 68.6408 22.3375 69.3091 22.2525C71.5327 21.9851 73.1488 20.6364 73.7199 18.4857C74.1087 17.064 74.133 15.6181 73.7928 14.1721ZM70.7308 18.1454C70.4756 19.0203 69.9288 19.64 69.0539 19.9073C67.8389 20.284 66.6238 20.284 65.433 19.8344C64.6918 19.555 64.1693 19.0325 63.9262 18.2791C63.4888 16.9425 63.4645 15.5816 63.8776 14.2328C64.145 13.3337 64.7404 12.7383 65.6274 12.4588C66.6359 12.1429 67.6687 12.1307 68.6773 12.3616C70.1111 12.6897 70.8158 13.6496 70.9616 15.3264C70.9859 15.6059 70.9616 15.8975 70.9616 16.177C70.9981 16.8453 70.913 17.5014 70.7308 18.1454Z" fill="#6f43e7"/>
<path d="M58.689 13.4924C58.4945 11.9979 57.5832 10.9043 56.1373 10.5033C55.4933 10.321 54.8371 10.236 54.1567 10.236C52.1518 10.236 50.1469 10.236 48.142 10.236C47.9719 10.236 47.7896 10.1752 47.6924 10.236C48.0326 12.253 47.8382 14.2336 47.8503 16.2021C47.8503 18.1706 48.0205 20.1512 47.7167 22.1196C48.8346 22.1196 49.9646 22.1196 51.1432 22.1196C50.7544 21.026 50.9853 19.9689 50.9124 18.9239C50.8759 18.4743 51.0096 18.3407 51.4713 18.3407C52.8079 18.3407 54.1445 18.4257 55.469 18.2435C57.1336 18.0126 58.3609 16.919 58.6525 15.2908C58.7619 14.6954 58.774 14.1 58.689 13.4924ZM54.7035 15.9226C53.5856 16.2872 52.4312 16.1899 51.2769 16.1656C50.961 16.1535 50.9124 15.8983 50.9124 15.631C50.9124 15.1814 50.9124 14.744 50.9124 14.2944C50.9124 13.8448 50.9124 13.4074 50.9124 12.9578C50.9124 12.7148 50.9731 12.5082 51.2769 12.5082C52.3826 12.4839 53.5005 12.3867 54.5941 12.6662C55.3353 12.8606 55.6755 13.3466 55.7241 14.185C55.7727 15.0599 55.4204 15.6918 54.7035 15.9226Z" fill="#6f43e7"/>
</g>
<defs>
<clipPath id="clip0">
<rect width="161" height="27.5462" fill="#6f43e7" transform="translate(0 0.454102)"/>
</clipPath>
</defs>
</svg>
